assets/icons/qvision/copyright.svg

<svg xmlns="http://www.w3.org/2000/svg" enable-background="new 0 0 24 24" height="24" viewBox="0 0 24 24" width="24"><g><rect fill="none" height="24" width="24" x="0"/></g><g><g><g><path d="M11.88,9.14c1.28,0.06,1.61,1.15,1.63,1.66h1.79c-0.08-1.98-1.49-3.19-3.45-3.19C9.64,7.61,8,9,8,12.14 c0,1.94,0.93,4.24,3.84,4.24c2.22,0,3.41-1.65,3.44-2.95h-1.79c-0.03,0.59-0.45,1.38-1.63,1.44C10.55,14.83,10,13.81,10,12.14 C10,9.25,11.28,9.16,11.88,9.14z M12,2C6.48,2,2,6.48,2,12s4.48,10,10,10s10-4.48,10-10S17.52,2,12,2z M12,20c-4.41,0-8-3.59-8-8 s3.59-8,8-8s8,3.59,8,8S16.41,20,12,20z"/></g></g></g></svg>

<svg width="24" height="24" viewBox="0 0 24 24" fill="none" xmlns="http://www.w3.org/2000/svg">
<g clip-path="url(#clip0_147_4057)">
<path d="M11.88 9.14C13.16 9.2 13.49 10.29 13.51 10.8H15.3C15.22 8.82 13.81 7.61 11.85 7.61C9.64 7.61 8 9 8 12.14C8 14.08 8.93 16.38 11.84 16.38C14.06 16.38 15.25 14.73 15.28 13.43H13.49C13.46 14.02 13.04 14.81 11.86 14.87C10.55 14.83 10 13.81 10 12.14C10 9.25 11.28 9.16 11.88 9.14ZM12 2C6.48 2 2 6.48 2 12C2 17.52 6.48 22 12 22C17.52 22 22 17.52 22 12C22 6.48 17.52 2 12 2ZM12 20C7.59 20 4 16.41 4 12C4 7.59 7.59 4 12 4C16.41 4 20 7.59 20 12C20 16.41 16.41 20 12 20Z" fill="#323232"/>
</g>
<defs>
<clipPath id="clip0_147_4057">
<rect width="24" height="24" fill="white"/>
</clipPath>
</defs>
</svg>
